X: 319
T:Helas que pourra
N: Derived from Jos2714-Helas_que_pourra.krn
C: Josquin des Prez
%%abc-version 2.0
%%abcx-abcm2ps-target-version 5.9.1 (29 Sep 2008)
%%abc-creator hum2abc beta
%%abcx-conversion-date 2019/02/12 16:15:54
%%abc-edited-by Jesse Rodin
%%abc-edited-by Victoria Chang 2012/03/27
%%abcx-initial-encoding-date 2012/03/27/
%%humdrum-veritas 388822574
%%humdrum-veritas-data 1110269461
%%linebreak <none>
%%barnumbers 0
L: 1/4
M: 2/1
Q: 1/2=120
V: 1 clef=treble
V: 2 clef=treble-8
V: 3 clef=treble-8
K: F
[V:1] z8 | 
[V:2] z8 | 
[V:3] z4c4 | 
[V:1] z8 | 
[V:2] z8 | 
[V:3] c6B2 | 
[V:1] z8 | 
[V:2] z8 | 
[V:3] A2B2G4 | 
[V:1] z8 | 
[V:2] z4c4 | 
[V:3] F3GA3B | 
[V:1] z8 | 
[V:2] c6B2 | 
[V:3] c3de2f2- | 
[V:1] z8 | 
[V:2] A2B2G4 | 
[V:3] f2ede4 | 
[V:1] z4c4 | 
[V:2] F3GA3B | 
[V:3] f4z2F2 | 
[V:1] c6B2 | 
[V:2] c3de2f2- | 
[V:3] A3Bc2d2- | 
[V:1] A2B2G4 | 
[V:2] f2ede4 | 
[V:3] d2cBc4 | 
[V:1] F3GA3B | 
[V:2] f4z2c2 | 
[V:3] F8 | 
[V:1] c3de2f2- | 
[V:2] e3fg2a2- | 
[V:3] z2c4A2 | 
[V:1] f2ede4 | 
[V:2] a2gfg4 | 
[V:3] d4c4 | 
[V:1] f4z2f2- | 
[V:2] f6f2 | 
[V:3] F3GA2B2- | 
[V:1] fedce2d2- | 
[V:2] f4g4 | 
[V:3] Bcd2c2G2 | 
[V:1] d2c4=B2 | 
[V:2] e2f2d4 | 
[V:3] A4G4 | 
[V:1] c8 | 
[V:2] c8- | 
[V:3] A2F4ED | 
[V:1] z8 | 
[V:2] c8 | 
[V:3] C4z4 | 
[V:1] c4A2B2 | 
[V:2] z2f4d2 | 
[V:3] F3EF2G2 | 
[V:1] c2d3cBA | 
[V:2] e2f2g3f | 
[V:3] E2D2G4 | 
[V:1] B2G2A2F2 | 
[V:2] ede2c2d2 | 
[V:3] z2E2F2D2 | 
[V:1] G2A3GFE | 
[V:2] B2c2d3c | 
[V:3] G2F2D4 | 
[V:1] F2D2G2E2 | 
[V:2] BAB2G2c2 | 
[V:3] z2G2E2C2 | 
[V:1] F2G3FED | 
[V:2] A2B2c3B | 
[V:3] F2E2C4 | 
[V:1] E2C2c3B | 
[V:2] AGA2F2f2- | 
[V:3] c3BAGA2 | 
[V:1] AGB3AGF | 
[V:2] fedc_e3d | 
[V:3] F2G2_E4 | 
[V:1] A3GFEG2- | 
[V:2] cBd3cBA | 
[V:3] F2D4E2 | 
[V:1] GFEDE2C2- | 
[V:2] c3BAGA2- | 
[V:3] C4z2F2- | 
[V:1] C2F4E2 | 
[V:2] A2GFG4 | 
[V:3] FED2C4 | 
[V:1] !fermata!F8 | 
[V:2] F8- | 
[V:3] c4z2c2 | 
[V:1] z2c2c3B | 
[V:2] F4z2f2 | 
[V:3] c3BA4 | 
[V:1] A4z2d2 | 
[V:2] f3ed4 | 
[V:3] z2d2d3c | 
[V:1] d3cB3A | 
[V:2] z2g2g3f | 
[V:3] B3AG4 | 
[V:1] G4z2c2 | 
[V:2] e3dc4 | 
[V:3] z2c2c3B | 
[V:1] c3BA4 | 
[V:2] z2f2f3e | 
[V:3] A4z2d2 | 
[V:1] z2d2d3c | 
[V:2] d4z2g2 | 
[V:3] d3cB3A | 
[V:1] B3AG4 | 
[V:2] g3fe3d | 
[V:3] G4z2c2 | 
[V:1] z2c4A2 | 
[V:2] c4f4 | 
[V:3] c3BA2F2 | 
[V:1] B2c2dcBA | 
[V:2] d2e2f2g2- | 
[V:3] G2E2D2G2 | 
[V:1] G4z2A2- | 
[V:2] gfedc4 | 
[V:3] E2C2F4 | 
[V:1] A2F2G2A2 | 
[V:2] d4B2c2 | 
[V:3] D4z2A2 | 
[V:1] BAGFE4 | 
[V:2] d2e3dcB | 
[V:3] G4c4 | 
[V:1] FGABcdB2- | 
[V:2] ABcdefd2- | 
[V:3] F3EC2G2- | 
[V:1] B2A4G2 | 
[V:2] d2c2B4 | 
[V:3] G2A2E4 | 
[V:1] A4z2A2- | 
[V:2] A8 | 
[V:3] z2A3GFE | 
[V:1] AGFEF4 | 
[V:2] z2d3cBA | 
[V:3] F4D4 | 
[V:1] D4z2G2- | 
[V:2] G4G4 | 
[V:3] z2G3FED | 
[V:1] GFEDE4 | 
[V:2] z2c3BAG | 
[V:3] E4C4 | 
[V:1] C4z2c2- | 
[V:2] A4F4 | 
[V:3] z2c3BAG | 
[V:1] cBAGA4 | 
[V:2] z2f3edc | 
[V:3] A4F4 | 
[V:1] F4D2G2 | 
[V:2] d3cB2G2 | 
[V:3] D4G2E2 | 
[V:1] E2A2F2B2 | 
[V:2] c2A2d2B2 | 
[V:3] A2F2B2G2 | 
[V:1] G2c2A2d2- | 
[V:2] _e2c2f4 | 
[V:3] c2A2d2B2 | 
[V:1] d2c4B2 | 
[V:2] =e2c2d4 | 
[V:3] c2A2G4 | 
[V:1] c2BABAGF | 
[V:2] c4d4 | 
[V:3] A4G4 | 
[V:1] E2C3DEF | 
[V:2] c8 | 
[V:3] z2C2F4 | 
[V:1] GABcA2G2- | 
[V:2] c6B2 | 
[V:3] C4z2E2 | 
[V:1] G2F4E2 | 
[V:2] A2F2G4 | 
[V:3] F2D2C4 | 
[V:1] F2G4F2- | 
[V:2] F2E2F4 | 
[V:3] F2C2D4 | 
[V:1] F2E2F4 |]  
[V:2] G4F4 |]  
[V:3] C4F4 |]  



